X: 560
T: Borea Piemontese
B: good tune book
B: tunes
M:2/4
R: polka
Q: 1/4=100
K:Gmajor
V:1 
g2b2 g2b2|   f2e2 e4|   fgag f2a2|   e2d2 d4|   d2ed c2B2|   d2c2 c4|
   c2dc B2A2|   e2d2 d4| gbgb gbgb|   f2e2 e4|   fgag fafa|   e2d2 d4|
   d2ed c2B2|   d2c2 c4|   c2dc B2A2|   G4 G4||:d2ed c2B2|   ABcB A2A2|
   c2dc B2A2|   GABA G2G2|   d2ed c2B2|   ABcd e2e2| c2dc B2A2|   GABc d2d2|
   d2ed c2B2|   ABcB A2A2|   c2dc B2A2|   G4 G4:|
% abcbook-tune_id 63dce226282a0de22be4aec9
% abcbook-tune_composer_id 
% abcbook-link-0 https://www.youtube.com/watch?v=wevVS3l3siI
% abcbook-link-title-0 Borea dal Blanchi- danza piemontese
% abcbook-boost 0
% abcbook-difficulty 0
% abcbook-tags good tune book,youtube todo,no youtube available
% abcbook-tablature 
% abcbook-transpose 
% abcbook-tuning 
% abcbook-lastupdated 1677066100099
% abcbook-soundfonts 
% abcbook-repeats 1


